X:1
T:Dalvisa
T:Elfrida Andrée (1841-1923)
T:Dalvisa
%%score 1 { ( 2 3 ) | ( 4 5 ) }
L:1/8
Q:1/4=85
M:3/4
K:F
V:1 treble nm="MusicXML Part"
V:2 treble nm="Vocals"
V:3 treble 
V:4 bass 
V:5 bass 
V:1
 z6 | z6 | A2 F2 F2 | G>F G>A (3GE^C |!mf! A2 F2 F2 | G>F G>A (3GE^C |!p! (3A,=B,^C D>F EC | %7
w: ||Vin- dar- na|suc- ka ut- i sko- gar- na|For- sar- na|bru- sa ut- i äl- var- na|Vå- gor- na gun- ga sak- ta|
!pp! (3A,=B,^C D>F EC | (3(A,=B,)^C DF ED | (3(^CD)E D2 !fermata!z2 | A2 F2 F2 | G>F G>A (3GE^C | %12
w: Vå- gor- na gun- ga sak- ta|Gun- * ga sak- ta fram mot|Sil- * jans strand|Full- må- nen|glim- mar mel- lan sky- ar- na|
!mf! A2 F2 F2 | G>F G>A (3GE^C | (3A,=B,^C D>F EC | (3A,=B,^C DF EC | (3(A,=B,)^C DF ED | %17
w: Lju- sen de|tind- ra ut- i by- ar- na|Fjäl- lar- nas kam om- gju- tes|Fjäl- lar- nas kam om- gju- tes|De _ om- gju- tes skönt av|
 (3(^CD)E D2 z2 | z6 | z6 | A2 F2 F2 | G>F G>A (3GE^C | A2 F2 F2 | G>F G>A (3GE^C | %24
w: norr- * skens- brand|||En- sam i|stil- la stjär- ne- nät- ter- na|Långt ut- åt|vi- da Mo- ra- slät- ter- na|
 (3A,=B,^C DF EC | (3A,=B,^C DF EC | (3A,=B,^C D>F E>D | (3(^CD)E D2 z2 | z6 | z6 |] %30
w: Val- lar jag få- ren mi- na|Val- lar jag få- ren mi- na|Val- lar och sjun- ger se'n på|e- * gen hand|||
V:2
!pp! d6 |"^Instrument change" d2 ^c4 |"^Instrument change" d6- |"^Instrument change" d4 e2 | %4
"^Instrument change" d6-"^Instrument change" |"^Instrument change" d4 ^ce"^Instrument change" | %6
"^Instrument change" A6 |"^Instrument change" A6 |"^Instrument change" A4 cB | %9
"^Instrument change" A4 !fermata!z2 |"^Instrument change" d6- |"^Instrument change" d2 ^c4 | %12
"^Instrument change" d6-"^Instrument change" |"^Instrument change" d4 ^ce"^Instrument change" | %14
"^Instrument change" f2 A4 |"^Instrument change" A6"^Instrument change" | %16
"^Instrument change" A4"^Instrument change" cB |"^Instrument change" A4!<(! GA | %18
"^Instrument change" Bd!<)! fd"^Instrument change" BG | %19
"^Instrument change"!>(! B2 A2!>)!"^Instrument change" z2 |"^Instrument change" D6 | %21
"^Instrument change" E6- |"^Instrument change" E2 D4 |"^Instrument change" D2 B2 A2 | %24
"^Instrument change" A6- |"^Instrument change" A6-"^Instrument change" | %26
"^Instrument change" A4 G2"^Instrument change" |"^Instrument change" A4 FB"^Instrument change" | %28
"^Instrument change" df dB-"^Instrument change" BA |"^Instrument change" A6 |] %30
V:3
 F6 | E6 | F6 | G2 E4 | F6 | G6 | F4"^Instrument change" G2 | F4 G2- | G2 FD- D2 | %9
 E^C"^Instrument change" A,2 x2 | F6 | E6 | F6 | G6 | F4"^Instrument change" G2 | F4 G2- | %16
 G2 FD- DG | (3:2:2D2 ^C"^Instrument change" D4- | D6- | D2 ^C2 x2 | A,6 | B,6 | A,6 | B,2 D2 ^C2 | %24
 D4"^Instrument change" ^CE | A,6- | A,4 B,2 | A,4 D2- | D4 D^C | D6 |] %30
V:4
!pp! A,6 | B,4 A,2 | A,6 | B,6 | A,2 D2 C2 | =B,2- B,>A, A,2 | A,4 ^CE | A,6 | A,4 G,E, | %9
 G,2 F,2 !fermata!z2 | A,6 | D2 A,4 | B,2 D2 C2 | =B,2 B,>A,- A,2 | A,4 ^CE | F2 A,4 | A,4 G,E, | %17
 G,2 F,4- |!<(! F,4!<)! G,E, |!>(! G,4!>)! z2 | F,6 | G,6 | F,6 | G,6 | F,4 G,2- | G,2 F,D, E,2 | %26
 F,3 D,- D,2 | G,2 F,4- | F,4 G,2 | F,6 |] %30
V:5
 D,6- | D,6 | D,6- | D,6 | D,6- | D,6 | D,6- | D,6 | D,4 A,,2- | A,,2 D,2 x2 | D,6- | D,6 | D,6- | %13
 D,6 | D,6- | D,6 | D,4 G,,2 | A,,2 B,,3 A,, | G,,4 G,,B,, | A,,4 x2 | A,,6- | A,,6 | A,,6- | %23
 A,,6 | A,,6 | A,,4 G,,2 | F,,4 B,,2 | A,,6 | A,,6 | D,6 |] %30

